svg/black/ella.svg

<svg height="32" viewBox="0 0 32 32" width="32" xmlns="http://www.w3.org/2000/svg"><path d="m16 32c-8.836556 0-16-7.163444-16-16s7.163444-16 16-16 16 7.163444 16 16-7.163444 16-16 16zm2.0726138-18.7878513 2.2069518-2.2069519-4.2795656-6.0051968-4.2506258 6.0623679 2.1638964 2.1638964 2.0867294-2.0867294zm-4.8828943.7376667-2.1997103-2.1997102-5.9900092 4.2498948 6.0558305 4.2289319 2.1563182-2.1563181-2.0726138-2.0726138zm5.5840162 4.136914 2.1818938 2.1818938 6.0443705-4.2686232-5.9784867-4.2896486-2.2253484 2.2253484 2.0643002 2.0643002zm-4.8380359.7094355-2.1394331 2.139433 4.2037333 6.0644021 4.2324937-6.0074104-2.1823091-2.1823091-2.0501846 2.0501846zm2.0643002-6.2679257-3.4717608 3.4717608 3.4717608 3.4717608 3.4717608-3.4717608z" fill-rule="evenodd"/></svg>

<svg height="32" width="32" xmlns="http://www.w3.org/2000/svg"><path d="M16 32C7.163 32 0 24.837 0 16S7.163 0 16 0s16 7.163 16 16-7.163 16-16 16zm2.073-18.788l2.207-2.207L16 5l-4.25 6.062 2.163 2.164L16 11.14zm-4.883.738l-2.2-2.2L5 16l6.056 4.229 2.156-2.156L11.14 16zm5.584 4.137l2.182 2.182L27 16l-5.978-4.29-2.226 2.226L20.86 16zm-4.838.71l-2.14 2.139L16 27l4.232-6.007-2.182-2.183L16 20.86zM16 12.527L12.528 16 16 19.472 19.472 16z" fill-rule="evenodd"/></svg>
